X:1
T:When the King Shall Come
T:Roger M. Hickman
T:When the King Shall Come
T:Public Domain
T:Public Domain
T:Public Domain
C:Roger M. Hickman
Z:Public Domain
%%score ( 1 2 ) ( 3 4 )
L:1/8
M:4/4
K:Ab
V:1 treble 
V:2 treble 
V:3 bass 
V:4 bass 
V:1
 [CA]>[DB] | [Ec]2 [CA]2 [Fd]2 [Ec]>[Ec] | [DB]2 [DG]2 [CA]2 [CE]>[CE] | %3
w: 1.~When the|King shall come at the|end of days, All the|
w: 2.~When the|King shall come, will He|wel- come you? Will He|
w: 3.~When the|King shall come with a|shout at dawn, Earth and|
 [DF]2 [EA]>[EB] [Ec]2 [Fd]>[Fd] | [Ec]2 [=DA]2 [EB]2 [Ec]>[E=d] | %5
w: saints of our God will be|wel- comed home; ’Round the|
w: give you a place with the|saints who reign? Or when|
w: stars will dis- solve in a|fer- vent heat; Jew- eled|
 [Ee]2 [Ec]>[Ec] [=Ec]2 [EB]>[EB] | [FA]2 F2 [FA]2 [FA]>[FA] | [=DB]2 [DB]>[Dc] [EB]2 [EG]>[FA] | %8
w: throne they will ga- ther to|sing His praise, And will|ver a- gain from His pal-|
w: judged by the King in the|last re- view, Will you|to the realms of e- ter-|
w: crowns, from the mon- archs of|earth with- drawn, Will be|with ho- san- nas at Je-|
 [EG]2 [=DF]2 E2 ||"^Refrain" [CE]>[CA] | [Ec]4 [EA]4 | [Ec]6 [CE]>[CA] | [Ec]4 [CA]4 | %13
w: ace roam. When|King shall|come, when|the King shall|come, Songs|
w: nal pain? *|||||
w: sus’ feet. *|||||
 [EB]6 E>[EF] | [EG]2 [EG]>[EA] [EB]2 [EB]>[Ec] | [Gd]2 [^Fc]2 [Gd]2 E>[DE] | %16
w: of joy will|sound from the east and west,|And the saved will re-|
w: |||
w: |||
 [CA]2 [EA]>[EB] [Ec]2 [Ec]>[Ed] | [Ae]2 [A=d]2 [Ae]2 e>f | (z2 E>E) (E2 E2) | [Ac]6 [Ec]>[EB] | %20
w: in that land of rest, When|the King shall come, when|* * the *|shall come; There’ll|
w: ||||
w: ||||
 [FA]4 [DF]4 | [FA]6 [FA]>[FB] | [Ec][CA][Ee][Fd] [Ec]2 [DB]2 | [CA]6 |] %24
w: be glo-|ry when the|King shall come. * * *||
w: ||||
w: ||||
V:2
 x2 | x8 | x8 | x8 | x8 | x8 | x2 F2 x4 | x8 | x4 E2 || x2 | x8 | x8 | x8 | x6 E3/2 x/ | x8 | %15
w: ||||||ne-||the|||||re-||
w: ||||||pass|||||||||
w: ||||||cast|||||||||
 x6 E3/2 x/ | x8 | x8 | (e4 A4) | x8 | x8 | x8 | x8 | x6 |] %24
w: joice|||King *||||||
w: |||||||||
w: |||||||||
V:3
 [A,,A,]>[A,,A,] | [A,,A,]2 [A,,A,]2 [A,,A,]2 [A,,A,]>[A,,A,] | %2
w: ~ ~|~ ~ ~ ~ ~|
 [E,G,]2 E,2 [A,,E,]2 [A,,A,]>[A,,A,] | [D,A,]2 [C,A,]>[B,,G,] [A,,A,]2 A,>A, | %4
w: ~ ~ ~ ~ ~|~ ~ ~ ~ ~ ~|
 A,2 [F,B,]2 [E,G,]2 A,>[A,B,] | [A,C]2 [A,,A,]>[A,,A,] [C,G,]2 [C,C]>[C,C] | %6
w: ~ ~ ~ ~ ~|~ ~ ~ ~ ~ ~|
 [F,C]2 [F,A,]2 [D,D]2 [D,A,]>[D,A,] | [B,,A,]2 [B,,A,]>[B,,A,] [B,,G,]2 [B,,B,]>[B,,B,] | %8
w: ~ ~ ~ ~ ~|~ ~ ~ ~ When the|
 [B,,B,]2 [B,,A,]2 [E,G,]2 || z2 | z2 [A,,A,]>[A,,A,] [C,A,]2 [E,C]2 | A,2 [E,A,]2 A,2 z2 | %12
w: King shall come||to reign, When the|King shall come|
 z2 [A,,A,]>[A,,A,] [E,A,]2 A,2 | [E,G,]2 [F,A,]2 [G,B,]2 [E,G,]>[E,A,] | %14
w: ~ ~ ~ ~|~ ~ ~ ~ ~|
 [E,B,]2 [E,B,]>[E,C] [E,D]2 [E,G,]>[E,A,] | [E,B,]2 [E,=A,]2 [E,B,]2 [E,G,]>[E,G,] | %16
w: ~ ~ ~ ~ ~ ~|~ ~ ~ ~ ~|
 [A,,A,]2 [C,A,]>[E,G,] A,2 A,>[A,B,] | [A,C]2 [A,=B,]2 [A,C]2 C>D | z2 A,>A, A,2 A,2 | %19
w: ~ ~ ~ ~ When the|come to reign, * *||
 [A,E]2 [A,E]2 [A,E]2 A,>[A,C] | [D,D]4 [D,A,]4 | [D,D]6 [D,A,]>[=D,A,] | %22
w: |||
 [E,A,][E,A,][C,A,][D,A,] [E,A,]2 [E,G,]2 | [A,,A,]6 |] %24
w: ||
V:4
 x2 | x8 | x2 E,2 x4 | x6 A,>A, | A,2 x2 A,3/2 x5/2 | x8 | x8 | x8 | x6 || x2 | x8 | A,2 A,2 x4 | %12
w: ||~|~ ~|~ ~|||||||to reign,|
 x6 A,2 | x8 | x8 | x8 | x4 A,2 A,3/2 x/ | x8 | C4 C4 | x6 A,3/2 x/ | x8 | x8 | x8 | x6 |] %24
w: ~||||King shall||||||||

